X:222
T:A Trip To Glasgow #1 
C:Joe Buchanan's Scottish Tome - Page 289.3
I:289 3
R:Jig
Z:Carl Allison
L:1/8
M:6/8
K:D
A | DFE DFA | BGB Ade | fdf ecA | BdB AFE |
DFE DFA | BGB ABc | dcd  ecA | d3 d2 :|
cd | ecA ABc | dcd ecA | GBd FAd | EFG AFE |
DFE DFA | BGB ABc | dcd ecA | d3 d2 :|

